_includes/icons/color-heart-with-pulse.svg

<svg fill="#666" height="50" viewBox="0 0 48 48" width="50" xmlns="http://www.w3.org/2000/svg"><path d="m34 6c-4.176 0-7.852 2.137-10 5.371-2.149-3.234-5.824-5.371-10-5.371-6.627 0-12 5.373-12 12 0 11.943 22 24 22 24s22-11.955 22-24c0-6.627-5.373-12-12-12" fill="#f44336"/><g fill="#ffebee"><path d="m29.006 25h3.456c.553 0 1-.448 1-1s-.447-1-1-1h-4.802l-1.183 2.904-3.286-7.682-3.538 10.266-4.476-17.9-3.877 13.907-2.8-6.533-2.16 5.038h-3.15c.304.673.658 1.34 1.058 2h3.411l.841-1.962 3.2 7.468 3.372-12.094 4.274 17.1 4.046-11.734 3.13 7.318z"/><circle cx="34" cy="24" r="2"/></g></svg>

<svg xmlns="http://www.w3.org/2000/svg" viewBox="0 0 48 48" width="50" height="50" fill="#666"><path d="M34,6c-4.176,0-7.852,2.137-10,5.371C21.851,8.137,18.176,6,14,6C7.373,6,2,11.373,2,18 c0,11.943,22,24,22,24s22-11.955,22-24C46,11.373,40.627,6,34,6" fill="#f44336"/><path d="M29.006,25h3.456c0.553,0,1-0.448,1-1s-0.447-1-1-1H27.66l-1.183,2.904l-3.286-7.682l-3.538,10.266 l-4.476-17.9L11.3,24.495l-2.8-6.533L6.34,23H3.19c0.304,0.673,0.658,1.34,1.058,2h3.411L8.5,23.038l3.2,7.468l3.372-12.094 l4.274,17.1l4.046-11.734l3.13,7.318L29.006,25z" fill="#ffebee"/><circle cx="34" cy="24" r="2" fill="#ffebee"/></svg>
